packages/dnb-ui-lib/assets/icons/check_alt_01_medium.svg

<svg width="24" height="24" viewBox="0 0 24 24" fill="none" xmlns="http://www.w3.org/2000/svg">
<g clip-path="url(#clip0)">
<path fill-rule="evenodd" clip-rule="evenodd" d="M23.8274 1.67238C24.0925 1.35416 24.0495 0.881238 23.7313 0.616084C23.413 0.350931 22.9401 0.393952 22.675 0.712176L10.4119 15.4297L10.4119 15.4297C10.2167 15.6639 9.92395 15.7944 9.6193 15.783C9.31464 15.7717 9.03245 15.6197 8.85524 15.3717L8.85522 15.3716L5.11219 10.1321C4.87141 9.79502 4.403 9.71698 4.06595 9.95776C3.72891 10.1985 3.65087 10.667 3.89164 11.004L7.63465 16.2435C8.08199 16.8698 8.79434 17.2533 9.56342 17.282C10.3325 17.3107 11.0714 16.9812 11.5642 16.39L11.5642 16.39L23.8274 1.67238ZM1.49902 12.8024C1.49902 7.65805 5.61007 3.54701 10.7544 3.54701C12.2082 3.54701 13.6477 3.85929 14.8658 4.46836C15.2363 4.6536 15.6868 4.50344 15.872 4.13295C16.0573 3.76247 15.9071 3.31196 15.5366 3.12672C14.0867 2.40175 12.4133 2.04701 10.7544 2.04701C4.78164 2.04701 -0.000976562 6.82962 -0.000976562 12.8024C-0.000976562 18.7751 4.78164 23.5577 10.7544 23.5577C16.7271 23.5577 21.5098 18.7751 21.5098 12.8024C21.5098 11.9595 21.3898 11.1309 21.2772 10.4557C21.2091 10.0471 20.8227 9.77107 20.4141 9.83917C20.0055 9.90726 19.7295 10.2937 19.7976 10.7023C19.9074 11.361 20.0098 12.0889 20.0098 12.8024C20.0098 17.9467 15.8987 22.0577 10.7544 22.0577C5.61007 22.0577 1.49902 17.9467 1.49902 12.8024Z" fill="black"/>
</g>
<defs>
<clipPath id="clip0">
<path d="M0 0H24V24H0V0Z" fill="white"/>
</clipPath>
</defs>
</svg>

<svg width="24" height="24" viewBox="0 0 24 24" fill="none" xmlns="http://www.w3.org/2000/svg"><g clip-path="url(#clip0)"><path fill-rule="evenodd" clip-rule="evenodd" d="M23.827 1.672a.75.75 0 00-1.152-.96L10.412 15.43a.984.984 0 01-1.557-.058l-3.743-5.24a.75.75 0 10-1.22.872l3.743 5.24a2.484 2.484 0 003.93.146L23.826 1.672zM1.5 12.802a9.214 9.214 0 019.255-9.255c1.454 0 2.894.312 4.112.921a.75.75 0 10.67-1.341c-1.45-.725-3.123-1.08-4.782-1.08A10.714 10.714 0 000 12.802a10.714 10.714 0 0010.755 10.756A10.714 10.714 0 0021.51 12.802c0-.842-.12-1.671-.233-2.346a.75.75 0 10-1.48.246c.11.659.213 1.387.213 2.1a9.214 9.214 0 01-9.256 9.256A9.214 9.214 0 011.5 12.802z" fill="#000"/></g><defs/></svg>
